X:1
T:Title
L:1/8
M:4/4
K:Eb
V:1 treble nm="Grand Piano"
V:1
 z4 z E2 F | G3 G- G G2 A | F3 E- E F2 E | D4- D D2 E | F3 F- F F2 G | A3 A- A G2 _G | G4- G G2 A | %7
 B2 A2- A F2 G | A2 G2- G G2 A | c3 B- B A2 G | F4- F F2 G | A2 A2- A E2 F | G2 G2- G D2 E | %13
 F3 G- G E2 D | C4- C G2 G | c3 G- G B2 G | A4- A F2 A | d3 c- c B2 A | G4- G G2 G | A3 F- F E2 F | %20
 D4- D G2 A | G3 F- F E2 D | C6 z2 |] %23

